fs/window_console_20_filled.svg

<svg viewBox="0 0 20 20" fill="none" xmlns="http://www.w3.org/2000/svg" height="1em" width="1em">
  <path d="M5.64645 9.14645C5.84171 8.95118 6.15829 8.95118 6.35355 9.14645L8.35355 11.1464C8.44732 11.2402 8.5 11.3674 8.5 11.5C8.5 11.6326 8.44732 11.7598 8.35355 11.8536L6.35355 13.8536C6.15829 14.0488 5.84171 14.0488 5.64645 13.8536C5.45118 13.6583 5.45118 13.3417 5.64645 13.1464L7.29289 11.5L5.64645 9.85355C5.45118 9.65829 5.45118 9.34171 5.64645 9.14645ZM14 13H9.5C9.22386 13 9 13.2239 9 13.5C9 13.7761 9.22386 14 9.5 14H14C14.2761 14 14.5 13.7761 14.5 13.5C14.5 13.2239 14.2761 13 14 13ZM3 5.5C3 4.11929 4.11929 3 5.5 3H14.5C15.8807 3 17 4.11929 17 5.5V14.5C17 15.8807 15.8807 17 14.5 17H5.5C4.11929 17 3 15.8807 3 14.5V5.5ZM4.5 7V14.25C4.5 14.9404 5.05964 15.5 5.75 15.5H14.25C14.9404 15.5 15.5 14.9404 15.5 14.25V7H4.5Z" fill="#212121"/>
</svg>

<svg viewBox="0 0 20 20" fill="none" xmlns="http://www.w3.org/2000/svg" height="1em" width="1em">
  <path d="M5.646 9.146a.5.5 0 0 1 .708 0l2 2a.5.5 0 0 1 0 .708l-2 2a.5.5 0 0 1-.708-.708L7.293 11.5 5.646 9.854a.5.5 0 0 1 0-.708ZM14 13H9.5a.5.5 0 0 0 0 1H14a.5.5 0 0 0 0-1ZM3 5.5A2.5 2.5 0 0 1 5.5 3h9A2.5 2.5 0 0 1 17 5.5v9a2.5 2.5 0 0 1-2.5 2.5h-9A2.5 2.5 0 0 1 3 14.5v-9ZM4.5 7v7.25c0 .69.56 1.25 1.25 1.25h8.5c.69 0 1.25-.56 1.25-1.25V7h-11Z" fill="#212121"/>
</svg>
